src/4-icons/radio.svg

<svg width="260" height="260" viewBox="0 0 260 260" fill="none" xmlns="http://www.w3.org/2000/svg">
<g opacity="0.9">
<path d="M130 157.014C144.92 157.014 157.015 144.919 157.015 130C157.015 115.08 144.92 102.985 130 102.985C115.081 102.985 102.986 115.08 102.986 130C102.986 144.919 115.081 157.014 130 157.014Z" fill="black"/>
<path fill-rule="evenodd" clip-rule="evenodd" d="M130 80.6001C157.274 80.6001 179.4 102.725 179.4 130C179.4 157.3 157.274 179.4 130 179.4C102.7 179.4 80.6001 157.3 80.6001 130C80.6001 102.725 102.7 80.6001 130 80.6001ZM102.415 102.414C95.3683 109.486 91.0001 119.21 91.0001 130L90.9991 129.999C90.9991 140.79 95.3673 150.514 102.414 157.585C109.486 164.631 119.209 168.999 130 168.999C140.791 168.999 150.515 164.632 157.587 157.585C164.632 150.514 169 140.79 169 130C169 119.21 164.633 109.485 157.587 102.414C150.515 95.3673 140.791 90.9991 130.001 90.9991C119.211 90.9991 109.486 95.3673 102.415 102.414Z" fill="black"/>
</g>
</svg>

<svg width="260" height="260" fill="none" xmlns="http://www.w3.org/2000/svg"><g opacity=".9" fill="#000"><path d="M130 157.014c14.92 0 27.015-12.095 27.015-27.014 0-14.92-12.095-27.015-27.015-27.015-14.919 0-27.014 12.095-27.014 27.015 0 14.919 12.095 27.014 27.014 27.014Z"/><path fill-rule="evenodd" clip-rule="evenodd" d="M130 80.6c27.274 0 49.4 22.125 49.4 49.4 0 27.3-22.126 49.4-49.4 49.4-27.3 0-49.4-22.1-49.4-49.4 0-27.275 22.1-49.4 49.4-49.4Zm-27.585 21.814C95.368 109.486 91 119.21 91 130v-.001c0 10.791 4.367 20.515 11.414 27.586 7.072 7.046 16.795 11.414 27.586 11.414 10.791 0 20.515-4.367 27.587-11.414C164.632 150.514 169 140.79 169 130s-4.367-20.515-11.413-27.586c-7.072-7.047-16.796-11.415-27.586-11.415s-20.515 4.368-27.586 11.415Z"/></g></svg>
